X: 399
T:Dominic's farewell to Cashel
R:Jig
C:Josie McDermott
Z:Transcribed by Andrew Pickering
M:6/8
L:1/8
K:G
D|GFG BAB|d^cd efg|GFG dBG|ABG AFD|
GFG BAB|d^cd efg|age dBA|BGF G2:|
D|gfg efg|aga bge|gfg e/f/ge|dBG AFD|
gfg efg|aga bge|gfe dBA|BGF G2:|
<end>
<start>
